svg/fluentui-system-icons/ic_fluent_share_48_filled.svg

<svg width="48" height="48" viewBox="0 0 48 48" fill="none" xmlns="http://www.w3.org/2000/svg">
<path d="M31.605 6.83811C31.2415 6.49733 30.7103 6.40497 30.2531 6.60304C29.7959 6.80111 29.5 7.25178 29.5 7.75003V13.2223C29.1425 13.2305 28.7251 13.2514 28.26 13.2944C26.725 13.4362 24.6437 13.8204 22.4841 14.799C18.0824 16.7935 13.5579 21.1728 12.5081 30.3581C12.4493 30.8729 12.7141 31.3706 13.174 31.6094C13.6338 31.8482 14.1932 31.7785 14.5805 31.4343C18.9164 27.5801 22.9778 25.9209 25.9168 25.2155C27.3897 24.862 28.5872 24.7466 29.4032 24.718C29.4361 24.7169 29.4684 24.7158 29.5 24.715V30.25C29.5 30.7483 29.7959 31.1989 30.2531 31.397C30.7103 31.5951 31.2415 31.5027 31.605 31.162L43.605 19.9119C43.857 19.6756 44 19.3455 44 19C44 18.6545 43.857 18.3244 43.605 18.0881L31.605 6.83811ZM6 14.25C6 10.7983 8.79822 8.00003 12.25 8.00003H20.5C21.1904 8.00003 21.75 8.55967 21.75 9.25003C21.75 9.94039 21.1904 10.5 20.5 10.5H12.25C10.1789 10.5 8.5 12.179 8.5 14.25V35.75C8.5 37.8211 10.1789 39.5 12.25 39.5H33.75C35.8211 39.5 37.5 37.8211 37.5 35.75V33.5C37.5 32.8097 38.0596 32.25 38.75 32.25C39.4404 32.25 40 32.8097 40 33.5V35.75C40 39.2018 37.2018 42 33.75 42H12.25C8.79822 42 6 39.2018 6 35.75V14.25Z" fill="#212121"/>
</svg>

<svg xmlns="http://www.w3.org/2000/svg" width="48" height="48"><path d="M31.605 6.838a1.25 1.25 0 0 0-2.105.912v5.472c-.358.008-.775.03-1.24.072-1.535.142-3.616.526-5.776 1.505-4.402 1.995-8.926 6.374-9.976 15.56a1.25 1.25 0 0 0 2.073 1.075c4.335-3.854 8.397-5.513 11.336-6.219a17.713 17.713 0 0 1 3.486-.497l.097-.003v5.535a1.25 1.25 0 0 0 2.105.912l12-11.25a1.25 1.25 0 0 0 0-1.824l-12-11.25ZM6 14.25A6.25 6.25 0 0 1 12.25 8h8.25a1.25 1.25 0 1 1 0 2.5h-8.25a3.75 3.75 0 0 0-3.75 3.75v21.5a3.75 3.75 0 0 0 3.75 3.75h21.5a3.75 3.75 0 0 0 3.75-3.75V33.5a1.25 1.25 0 0 1 2.5 0v2.25A6.25 6.25 0 0 1 33.75 42h-21.5A6.25 6.25 0 0 1 6 35.75v-21.5Z"/></svg>
